public/assets/logos/next.svg

<svg width="178" height="106" viewBox="0 0 178 106" fill="none" xmlns="http://www.w3.org/2000/svg">
    <g clip-path="url(#clip0_221_44)">
        <path d="M41.8986 28.0219H75.2113V30.6313H44.9522V50.2709H73.4069V52.8803H44.9522V74.4426H75.5583V77.0521H41.8986V28.0219ZM78.1956 28.0219H81.735L97.4198 49.5842L113.452 28.0219L135.257 0.632812L99.4324 51.8503L117.893 77.0521H114.215L97.4198 54.1164L80.5552 77.0521H76.9463L95.546 51.8503L78.1956 28.0219ZM119.212 30.6313V28.0219H157.175V30.6313H139.685V77.0521H136.632V30.6313H119.212Z"
              fill="white"/>
        <path d="M0.222961 28.0219H4.04005L56.6754 105.647L34.9237 77.052L3.41543 31.73L3.27663 77.052H0.222961V28.0219Z"
              fill="white"/>
        <path d="M156.867 73.6551C157.498 73.6551 157.959 73.1787 157.959 72.563C157.959 71.9474 157.498 71.471 156.867 71.471C156.243 71.471 155.775 71.9474 155.775 72.563C155.775 73.1787 156.243 73.6551 156.867 73.6551ZM159.867 70.782C159.867 72.5997 161.197 73.787 163.135 73.787C165.2 73.787 166.448 72.563 166.448 70.4375V62.9543H164.784V70.4302C164.784 71.6102 164.183 72.2406 163.121 72.2406C162.17 72.2406 161.524 71.6542 161.501 70.782H159.867ZM168.624 70.6867C168.743 72.5777 170.34 73.787 172.716 73.787C175.257 73.787 176.846 72.5191 176.846 70.4962C176.846 68.9057 175.94 68.0262 173.741 67.5205L172.561 67.2346C171.164 66.9121 170.6 66.4797 170.6 65.7248C170.6 64.772 171.476 64.149 172.791 64.149C174.039 64.149 174.9 64.7573 175.056 65.7321H176.675C176.579 63.9511 174.989 62.6978 172.813 62.6978C170.473 62.6978 168.914 63.9511 168.914 65.8347C168.914 67.3885 169.798 68.312 171.736 68.7591L173.118 69.0889C174.536 69.4188 175.16 69.9025 175.16 70.7087C175.16 71.6469 174.18 72.3285 172.843 72.3285C171.409 72.3285 170.414 71.6909 170.273 70.6867H168.624Z"
              fill="white"/>
    </g>
    <defs>
        <clipPath id="clip0_221_44">
            <rect width="177" height="105" fill="white" transform="translate(0.0494385 0.390015)"/>
        </clipPath>
    </defs>
</svg>

<svg width="178" height="106" viewBox="0 0 178 106" fill="none" xmlns="http://www.w3.org/2000/svg"><g clip-path="url(#a)" fill="#fff"><path d="M41.899 28.022H75.21v2.61H44.952V50.27h28.455v2.61H44.952v21.562h30.606v2.61h-33.66V28.021Zm36.297 0h3.539L97.42 49.584l16.032-21.562L135.257.632 99.432 51.85l18.461 25.202h-3.678L97.42 54.116 80.555 77.052h-3.609l18.6-25.202-17.35-23.828Zm41.016 2.61v-2.61h37.963v2.61h-17.49v46.42h-3.053v-46.42h-17.42ZM.223 28.022H4.04l52.635 77.625-21.751-28.595L3.415 31.73l-.138 45.322H.223v-49.03ZM156.867 73.655c.631 0 1.092-.476 1.092-1.092 0-.616-.461-1.092-1.092-1.092-.624 0-1.092.476-1.092 1.092 0 .616.468 1.092 1.092 1.092Zm3-2.873c0 1.818 1.33 3.005 3.268 3.005 2.065 0 3.313-1.224 3.313-3.35v-7.483h-1.664v7.476c0 1.18-.601 1.81-1.663 1.81-.951 0-1.597-.586-1.62-1.458h-1.634Zm8.757-.095c.119 1.89 1.716 3.1 4.092 3.1 2.541 0 4.13-1.268 4.13-3.29 0-1.591-.906-2.47-3.105-2.977l-1.18-.285c-1.397-.323-1.961-.755-1.961-1.51 0-.953.876-1.576 2.191-1.576 1.248 0 2.109.608 2.265 1.583h1.619c-.096-1.78-1.686-3.034-3.862-3.034-2.34 0-3.899 1.253-3.899 3.137 0 1.553.884 2.477 2.822 2.924l1.382.33c1.418.33 2.042.814 2.042 1.62 0 .938-.98 1.62-2.317 1.62-1.434 0-2.429-.638-2.57-1.642h-1.649Z"/></g><defs><clipPath id="a"><path fill="#fff" d="M.05.39h177v105H.05z"/></clipPath></defs></svg>
